X: 14
M: C
L: 1/8
K: D
(fg) | a3 b (af) (ed) | (e>de) f B3 d |
(A>BA) F A2 (dA) | F2 (A>B) A2 (d/e/f/g/) |
a3 (bc'/d'/) (af) (ed) | (gf) (ed) B2 (f>e) |
dB AF A2 d>e | f2 ed d4 ::
(AG) | F3 A (B>AB) d | (e>de) f B3 b |
(a>ba) f (gf) (ed) | (ga) (b/a/g/f/) {f}e2 (ag) |
(fa) (bc') d'3 b | (af) (ed) B2 (f>e) |
(dB) AF A2 (de) | f2 Te2 d2 :|

